icons/blocked-24.svg

<svg xmlns="http://www.w3.org/2000/svg" width="24" height="24" viewBox="0 0 24 24"><path d="M7.638 2.22a.749.749 0 01.53-.22h7.664c.199 0 .389.079.53.22l5.418 5.418c.141.14.22.332.22.53v7.664a.749.749 0 01-.22.53l-5.418 5.418a.749.749 0 01-.53.22H8.168a.749.749 0 01-.53-.22l-5.42-5.418a.752.752 0 01-.219-.53V8.168c0-.199.079-.389.22-.53l5.418-5.42zM8.48 3.5L3.5 8.48v7.04l4.98 4.98h7.04l4.98-4.98V8.48L15.52 3.5zM7 11.75a.75.75 0 01.75-.75h8.5a.75.75 0 010 1.5h-8.5a.75.75 0 01-.75-.75z"/></svg>

<svg xmlns="http://www.w3.org/2000/svg" width="24" height="24" viewBox="0 0 24 24">
  <defs/>
  <path d="M7.638,2.22 C7.779,2.079 7.969,2 8.168,2 L15.832,2 C16.031,2 16.221,2.079 16.362,2.22 L21.78,7.638 C21.921,7.778 22,7.97 22,8.168 L22,15.832 C22,16.031 21.921,16.221 21.78,16.362 L16.362,21.78 C16.221,21.921 16.031,22 15.832,22 L8.168,22 C7.969,22 7.779,21.921 7.638,21.78 L2.218,16.362 C2.078,16.221 1.999,16.031 1.999,15.832 L1.999,8.168 C1.999,7.969 2.078,7.779 2.219,7.638 L7.637,2.218 Z M8.48,3.5 L3.5,8.48 L3.5,15.52 L8.48,20.5 L15.52,20.5 L20.5,15.52 L20.5,8.48 L15.52,3.5 Z M7,11.75 C7,11.336 7.336,11 7.75,11 L16.25,11 C16.664,11 17,11.336 17,11.75 C17,12.164 16.664,12.5 16.25,12.5 L7.75,12.5 C7.336,12.5 7,12.164 7,11.75 Z"/>
</svg>
